X: 10913
Q: "Slow, with feeling."
M: C
L: 1/16
K: D
!pp!f3e |\
d3cd2B2 A3B d2e2 | f3g fede d4 !f!f3e |\
d3cd2B2 d6 cB |
d3cd2B2 A3B defg | f3g fede d4 |]\
z2d2 |\
d3ef2g2 a6 b2 | a3^ga2f2 {f}e4 z2d2 |
d3ef2g2 a6 b2 | {b}a4 g2f2 e4 z2!f!d2 |\
d3ef2g2 a6 b2 | {b}a4 gfef He4 f3e |\
d3cd2B2 A3B defg | f3g {f}e2de d4 |]


